X:1
T:Sonata Concertata
T:M.S. 2 (1803) for Violin and Guitar
T: Nicolo Paganini
T:Creative Commons by 4.0 (2016)
T:Creative Commons by 4.0 (2016)
T:Creative Commons by 4.0 (2016)
T:Creative Commons by 4.0 (2016)
T:Creative Commons by 4.0 (2016)
T:Creative Commons by 4.0 (2016)
T:Creative Commons by 4.0 (2016)
T:Creative Commons by 4.0 (2016)
T:Creative Commons by 4.0 (2016)
T:Creative Commons by 4.0 (2016)
T:Creative Commons by 4.0 (2016)
T:Creative Commons by 4.0 (2016)
Z:Creative Commons by 4.0 (2016)
%%score ( 1 2 ) ( 3 4 5 )
L:1/8
M:4/4
K:A
V:1 treble nm="Violin"
V:2 treble 
V:3 treble-8 nm="Guitar"
V:4 treble-8 
V:5 treble-8 
V:1
"^I. Allegro spiritoso"!f! [Ac]2"_quasi sempre staccato" z2 [EB]2 z2 | [CA]2 z2 z4 | %2
!p! G2 z2 (uA3 G) | G2 z2 z4 | z u!1![B,G][B,G][B,G] [B,G]2 z2 | z u!2![CA][CA][CA] [CA]2 z2 | %6
 u[B,A]8 | ([B,-A]4 [B,G]2) z2 |!f! !1![Aa]2 z (f/e/) ^de=dB | A2 z2 z2!p! (vf>e) | %10
 !1!B2 z2 (c3 B) | [GB]2 z2 z2!p! vBc | (e2 d2) z (uc^Bc) | (c2 =B2) z u!3!AGA | %14
 F!3!fdB A2{/c} B2 |!f! A2 z2 u[CE]2 u[CE]2 | [B,G]4 u[B,G]2 u[B,G]2 | [CA]4 [CA]2 [CA]2 | %18
 [A,F]2 z2 .E.D.C.B, |!f! A,.c.e.a .g.!1!a.b.c' | z ud'c'd' =b^ab!3!^b | %21
 z !4!c'=b=a !1!ga!3!e!4!^e | z !1!f=ed cBAG |!f! .A2 cB AGFE | %24
 !1_____________________!^DEFE D!3!B,CD | !1!E2"_cresc." gf e^dcB | !1!^ABcB !1!A!2!FEC | %27
 B,2!p! (B2 c2 ^d2 | e2) (!1!f2 g2 ^a2 | b2) (!3!B2 ^A2 B2) | (G2 ^D2 E2 C2) | B,2 z2 z4 | z8 | %33
"_dolce" (!1!E3 G) (B3 !3!e) | (e4 ^d2) z2 | (!1!F3 A) (^d3 !3!f) | (f4 e2) z2 | vg6!p! fe | %38
 !3!^d2 !>!c3 (!1!deg) | !1!B4 (!3!^dc!3!f^A) | (!2!c4 B2) z2 |!p! (uG,2 B,2 E2 G2) | %42
 (F2 A2 F2 ^D2) | (B,2 ^D2 F2 !3!B2) | (A2 B2 G2 E2) | (u!1!^B,2 ^D2) ([B,G]4 |!p! E2) z2 z4 | %47
 (u^A,2 C2) ([A,F]4 |!p! ^D2) z2 .B,.C.D.E | ([B,-F]8 | [B,E]2) G2 .E.c.B.A | G(BGE) ^D2- D z | %52
!f! E2 .B.e .^d.e.f.g | aBAG FGAF | G2 Be ^defg | aBAG FGAF | G2 g!1!a bc'd'c' | ba!2!gf edcB | %58
 cA,CE AEcA | (Bb (a/g/f/e/)){/g} Tf4{ef} | eBGG AGFE | ^D2 !3!fe ^defd | eBGG AG!2!FE | %63
 ^D2 !3!fe ^defd | e!1!B!1!EF GABA | GFE=D CB,A,G, | A,2 [A,E]2 z2 [A,E]2 | z2 [CE]2 z2 [^A,=G]2 | %68
 [B,^G]2 z2 z4 | EB,EB, ^D2- D z | E2 z2 z2 B2 | (c2 ^d2 e2 f2) | g2 b4 (ge) |!p! c2 z2 z2 ^d2 | %74
 e2 z2 z2!p! B2 | (^A2 =A2 G2 ^D2) | E2 GB G2 E2 |!p! A,2 z2 B,2 z2 | !1!E!4+!B!3!G!1!E !2!B,4 | %79
!p! EBGE B,4 |!ff! EGBB, EGBB, |1 E2 [EBe]2 [EBe]2 z2 :|2 EGBB, EGBB, ||[K:C]!ff! E2 GG, CEGB, | %84
[K:C]"_dolce" C2 (c3 d/)c/ Bc | ^c2 d4 .a.g | (^fg).a.g (fg).f.d | c2 z2 z4 |!p! [G,E]8 | [G,F]8 | %90
 [G,F]6 z2 |!mf! [G,E]GEG !1!C.!2!e.e.e | f2 (e3 f/e/) dc | !2!c2 B4 !3!fe | (^de).f.e (de).=d.B | %95
 A2 z2 z4 | [A,E]8 | [G,E]8 | ([C-E]8 | [CF]2) z2 z !1!aaa | _b2 (a3 ^c'/b/) a!2!g | %101
 (g2 f3) .d.e.f | a2 (g3 b/a/) gf | (f2 e2) z .!3!c'.c'.c' | (b2 a).c' (b2 a).c' | %105
 (g2 f).d' (f2 e).c' | (e2 d).d (d3 c) |!p! B2 z2 z4 |!p! _ecAc (^F4 | G)!p!DB,D G,2 z2 | %110
!p! _ecAc (^F4 | G2) z2 z4 |!p! [CE] z [CE] z [CE] z [CE] z | [CF] z [CF] z [CF] z [CF] z | %114
 [CE] z [CE] z c z B z |!mf! (3(cBc) (3(e^de) (3(g^fg) (3(!3!c'bc') | (b2 =d'2) z4 | %117
 (3(cBc) (3(e^de) (3(g^fg) (3(!3!c'bc') | (b2 =d'2) z4 | (3(cBc) (3(e^de) (3(g^fg) (3(c'bc') | %120
 (^f2 b2) z4 | (3(A^GA) (3(cBc) (3(e^de) (3(a^ga) | (^g2 b2) z4 | (3(!3!A^GA) (3(a^ga) (c'2 a) z | %124
 z2 (3(a^ga) (c'2 a) z | z2 (3(a^g"_cresc."a) (c'2 a) z | z2 (3(a^ga) (3(c'bc') (3(aga) | %127
 ^g z!p! (!1!B2 c2 d2) | .e2 (e2 d2 c2) | .B2!pp! (!1!B,2 C2 D2) | .E2 (E2 D2 C2) | %131
 B, z z2 z2 (A2 | ^G) z z2 z2 (A2 | ^G) z z2 z2 (A2 |!p! ^G) z (A2!p! G2) (A2 | %135
!p! ^G4) !fermata!z4 x8 x16 ||[K:A]"_dolce""^Tempo primo" (A3 c) (e3 a) | (!>!a4 g2) z2 | %138
 (B3 d) (g3 b) | (!>!b4 a2) z2 | c'6 ba | g2 !>!f3 (gac') |{/c'} !2!e4 (!2!gf!4!b!1!^d) | %143
 (!>!f4 e2) z2 |!p! C2 (.E2 .A2 .c2) | (B2 d2 B2) G2 | (E2 G2 B2) e2 | (d2 e2 c2) A2 | %148
 .^E2 .G2 ([Ec]4 |!p! A2) z2 z4 | !1!^D2 !3!F2 ([DB]4 |!p! G2) z2 .E.F.G.A | [EB]8 | .A2 .c2 AFED | %154
 (CEcA) G2- G z |!f! .A2 .e.a .^g.a.b.c' | d'edc BcdB | c2 .e.a .g .a.b.c' | d'edc BcdB | %159
 c2 cd ef=gf | edcB A=GFE | FDFA dfaf | ee' (d'/c'/b/a/){/c'} b4{ab} | .a.e.c.c .d.c.B.A | %164
 G2 ba gabg | aecc dcBA | G2 ba gabg | aecd ef=gf | edcB A=GFE | F2 [DA]2 z2 [DA]2 | %170
 z2 [FA]2 z2 [^D=c]2 | [E^c]2 z2 z4 | AEAE G2- G z | A2 z2 z2 e2 | %174
"_dolce" (!tenuto!.f2 !tenuto!.g2 !tenuto!.a2 !tenuto!.b2) | c'2 !>!e'4 (c'a) |!p! f2 z2 g2 z2 | %177
 a2 z2 z2 (.e2 |"_cresc." .^d2 .=d2 .c2 .G2) | A2 ce c2 A2 |!p! D2 z2 E2 z2 | AecA !>!E4 | %182
!p! AecA !>!E4 |!f! AceE AceE |!ff! A,CEE A,CEE | A,2 z2 [A,EA]7/2 [A,EA]/ | [A,EA]4 !fermata!z4 |] %187
[K:C][M:3/4]"^II. Adagio assai espressivo"[Q:1/4=44] z2!p! A z A z |!f! ^G2 z2 G z | %189
!p! .E.F CB, z2 | A, z z (!>!e d/)z/4c/4{/c}B/z/4A/4 |!p! .^G.B,.^G,.G, .G, z | %192
 A, z z (!>!e d/)z/4c/4{/c}B/z/4A/4 |!f! a!p!C.A,.C A, z | ^G, z z (B d/)z/4c/4{/c}B/z/4A/4 | %195
 (e3/2B/4^G/4) E2 z2 |!f! E=GEG F2 |!p! (EG C2) z E | CF C z [CF]2 | %199
 .E.G z/ (.G/.A/.B/ .c/.d/.e/.f/) | g4 (^f/4g/4a/4g/4=f/4e/4f/4d/4) | %201
 g4 (^f/4g/4a/4g/4=f/4e/4f/4d/4) | .f/.e/.f/.g/ .a/.g/.f/.e/ .f/.e/{/e}.d/.^c/ | %203
 d/z/z/G/ F/^c/d/e/ e/f/g/a/ | .e.f .=c.G B z |"_dolce" (_e3{/e} _d/c/) cc | (_e>_d _B2) z2 | %207
 (!>!_ec/)z/4e/4"_cresc." (!>!ec/)z/4e/4 (!>!ec/)z/4_A/4 | G/c/=e/^f/ g/c'/g/e/{/e} Td2 | %209
 c z (!>![G,-E]4 | [G,F]) g3/2!p! .^f/.g/.a/ .g/.=f/.e/.d/ | c z ([CE-]4 | %212
!p! [B,E]) e3/2!p! ^d/e/f/ e/=d/c/B/ | A z ([EA-]4 |!p! [FA]) a3/2!p! ^g/a/b/ c'/a/f/^d/ | %215
 e2 (^G2!p! A).G | E e3/2!p! .e/.^d/"_cresc.".=d/ .c/.^G/.A/.F/ | E z!f! E2 z2 | %218
 z2!p! A z"_cresc." A z | A z!f! A2 z2 |!p! .A.A AE ^G z |"_dolce" !>!c3{/c} _B/>A/ AA | %222
 (!>!c>_B) G2 z2 | (!>!cA/)z/4c/4"_cresc." (!>!cA/)z/4c/4 (cA/)z/4^D/4 | %224
!p! .E/.A/.=c/.^d/ .e/.a/.e/.c/{/c} TB2 | A z z2 (f7/4^G/4) |!p! A z z2 (f7/4^G/4) | %227
!p! A z"_morendo" E z C z | A,2 z2 z2 |] %229
[K:A][M:6/8][Q:3/8=100]"^III. Rondeau""^Allegro con brio Scherzando" z2 | %230
"_dolce" .[CA]2 z .[CA]2 z | z .[B,G].[B,G] .[B,G]2 z | .[B,G]2 z .[B,G]2 z | %233
 z .[CA].[CA] .[CA]2 z | .[CA]2 z .[CF]2 z | z .[^DF].[DF] .[DF]2 z | EAG FEB, | G, z2 z!f! EE | %238
 (cB).A{/B} AGA | (^A2 B) z EE | (ef).e dcB |{/B} c2 A z!f! EE | (AG).A cBA | (FG).A Bcd | %244
 (cf).e dcB |!f! [CA]3- [CA] z2 | [B,G]3- [B,G] z2 | [CA]2 z [DB]2 z | [CA]2 z [B,G]2 z | %249
!f! Aab c'd'e' | z ef gab | z ga fdB | ecA dBG |!f! [CA]2 z [B,G]2 z | [CA]2 z [B,G]2 z | %255
!ff! [CA][CA][CA] [CA][CA][CA] | [CA]3 z :|"_dolce" .e.a | c'3- c'.b.a | ((^a2 b)) z .c'.b | %260
 =a3- a.g.f | (^^f2 g) z .e'.^d' | ((c'^d'e')) .b.e'.d' | ((c'^d'e')) .b.a.g | ((g2 f)) z .f.e | %265
 ((^dcB)) B,2 z |!p! ([B,-F]6 | [B,G]2) z [B,G]2 z | ([B,-F]6 | [B,G]2) z [B,G]2 z | C2 z F3- | %271
!p! F z ^D z z F | EAG FEB, |!mf! (e/g/f/e/^d/c/) .B.B.B | (f/a/f/e/^d/c/ B).B.B | %275
 (e/g/f/e/^d/c/) .B.B.B | (f/a/f/e/^d/c/ B).B.B | e((gf))!p! .e.e.e | (e=gf)!p! .e.e.e | %279
 .=f((fe)) .d((d=c)) | .B((BA)) .=G.AB | =c2 z z"_dolce" =gg | =g3- gab |{/b} =c'2 =g z gg | %284
 =g3- g=fd | ((e2 =c)) z ee | =g3- gfe |"_cresc." .B.e.^g .b.e'.e |!f!{/g} Tf6{ef} | %289
 e2 z .[G,E].[G,E].[G,E] | [A,^D]2 z [A,D][A,D][A,D] | [G,E]2 z [G,E][G,E][G,E] | %292
 [A,^D]2 z [A,D][A,D][A,D] | [G,E]2 z z3 | [=G,E]2 z z3 |!f! [=G,=F]6- | [G,F]2 z z3 | %297
"_dolce" E3 E3 | =F3 F3 | E3 E3 | =F3 F3 | E3 E3 | E3 E3 | ((=CA,A ECA,)) | ((=F6 |!p! E2)) z z3 | %306
 ((=F6 |!p! E3)) ((=F3 |!p! E2)) z ((=F3 |!f! E2)) z !fermata!z z z | z!p! .d.^f .^g.g.a | %311
 .b.b.a .^g.g.f | (e z) z z3 | z6 | z6 | z3 !fermata!z || z z |"_dolce" .[CA]2 z .[CA]2 z | %318
 z .[B,G].[B,G] .[B,G]2 z | .[B,G]2 z .[B,G]2 z | z .[CA].[CA] .[CA]2 z | .[CA]2 z .[CF]2 z | %322
 z .[^DF].[DF] .[DF]2 z | EAG FEB, | G, z z z EE | ((cB)).A{/B} AGA | ((^A2 B)) z EE | %327
 ((ef)).e dcB |{/B} c2 A z EE | ((AG)).A cBA | ((FG)).A (Bc).d | (cf).e dcB |!f! [CA]3- [CA] z z | %333
 [B,G]3- [B,G] z z | [CA]2 z [DB]2 z | [CA]2 z [B,G]2 z |!f! Aab c'd'e' | z ef gab | z ga fdB | %339
 ecA dBG |!f! [CA]2 z [B,G]2 z | [CA]2 z [B,G]2 z |!ff! [CA][CA][CA] [CA][CA][CA] | [CA]3 z |] %344
V:2
 x8 | x8 | x8 | x8 | x8 | x8 | x8 | x8 | x8 | x8 | x8 | x8 | x8 | x8 | x8 | x8 | x8 | x8 | x8 | %19
 x8 | x8 | x8 | x8 | x8 | x8 | x8 | x8 | x8 | x8 | x8 | x8 | x8 | x8 | x8 | x8 | x8 | x8 | x8 | %38
 x8 | x8 | x8 | x8 | x8 | x8 | x8 | x8 | x8 | x8 | x8 | x8 | x8 | x8 | x8 | x8 | x8 | x8 | x8 | %57
 x8 | x8 | x8 | x8 | x8 | x8 | x8 | x8 | x8 | x8 | x8 | x8 | x8 | x8 | x8 | x8 | x8 | x8 | x8 | %76
 x8 | x8 | x8 | x8 | x8 |1 x8 :|2 x8 ||[K:C] x8 |[K:C] x8 | x8 | x8 | x8 | x8 | x8 | x8 | x8 | x8 | %93
 x8 | x8 | x8 | x8 | x8 | x8 | x8 | x8 | x8 | x8 | x8 | x8 | x8 | x8 | x8 | x8 | x8 | x8 | x8 | %112
 x8 | x8 | x8 | x8 | x8 | x8 | x8 | x8 | x8 | x8 | x8 | x8 | x8 | x8 | x8 | x8 | x8 | x8 | x8 | %131
 x8 | x8 | x8 | x8 | x32 ||[K:A] x8 | x8 | x8 | x8 | x8 | x8 | x8 | x8 | x8 | x8 | x8 | x8 | x8 | %149
 x8 | x8 | x8 | x8 | x8 | x8 | x8 | x8 | x8 | x8 | x8 | x8 | x8 | x8 | x8 | x8 | x8 | x8 | x8 | %168
 x8 | x8 | x8 | x8 | x8 | x8 | x8 | x8 | x8 | x8 | x8 | x8 | x8 | x8 | x8 | x8 | x8 | x8 | x8 |] %187
[K:C][M:3/4] x6 | x6 | x6 | x6 | x6 | x6 | x6 | x6 | x6 | =G,6 | G,G, C2 x C | x6 | x6 | x6 | x6 | %202
 x6 | x6 | x6 | x6 | x6 | x6 | x6 | x6 | x6 | x6 | x6 | x6 | x6 | x6 | x6 | x6 | x6 | x6 | x6 | %221
 x6 | x6 | x6 | x6 | x6 | x6 | x6 | x6 |][K:A][M:6/8] x2 | x6 | x6 | x6 | x6 | x6 | x6 | x6 | x6 | %238
 x6 | x6 | x6 | x6 | x6 | x6 | x6 | x6 | x6 | x6 | x6 | x6 | x6 | x6 | x6 | x6 | x6 | x6 | x4 :| %257
 x2 | x6 | x6 | x6 | x6 | x6 | x6 | x6 | x6 | x6 | x6 | x6 | x6 | x6 | x6 | x6 | x6 | x6 | x6 | %276
 x6 | x6 | x6 | x6 | x6 | x6 | x6 | x6 | x6 | x6 | x6 | x6 | x6 | x6 | x6 | x6 | x6 | x6 | x6 | %295
 x6 | x6 | =C=G,E CG,E | D=G,D DG,D | =C=G,E CG,E | D=G,D DG,D | =C=G,C CG,C | B,^G,B, B,G,B, | %303
 x6 | x6 | x6 | x6 | x6 | x6 | x6 | x6 | x6 | x6 | x6 | x6 | x4 || x2 | x6 | x6 | x6 | x6 | x6 | %322
 x6 | x6 | x6 | x6 | x6 | x6 | x6 | x6 | x6 | x6 | x6 | x6 | x6 | x6 | x6 | x6 | x6 | x6 | x6 | %341
 x6 | x6 | x4 |] %344
V:3
!f! a2 z (f/e/) !3!^d!4!e!2!=dB | A2 z2 z2!p! (f>e) | B2 z2 (!3!c3 B) | B2 z2 z2 B>!1!c | %4
 !4!e2 d2 z fed | !1!^B2 c2 z agf | !0!e!4!^d!2!cB !3!^A!0!B !4!a>d | (f3 g/f/) e2 z2 | %8
!f! [A,Ace]2 z2 [G,GBe]2 z2 | [CAce]2 z2 z4 |!p! B2 z2 !4!A3 !2!G | !3![EG]2 z2 z4 | %12
 [FAd]4 [EGc]4 | !3!!2![DFB]4 [CEA]4 | [DABf]4 [EAce]2 [E,GBe]2 |!f! z A/c/ ea !1!g!2!abc' | %16
 z d'c'd' !2!b^ab^b | z c'!2!b!2!a ga!0!e^e | z fed cBAG |!f! [A,Ace]4 [A,Ace]2 [A,Ace]2 | %20
 [G,GBe]4 [G,GBe]2 [G,GBe]2 | [A,Ace]4 [CAce]2 [CAce]2 | [DABf]4 EDCB, |!f! A,AcB AGFE | %24
 ^DEFE DB,CD | EFGF E"_cresc."^DCB, | ^A,B,CB, A,F,G,A, |!p! B,B!4!BB ^AB=AB | GB^DB EBCB | %29
 z B!4!BB !1!cB!3!^dB | !0!eB!1!fB !3!gB^aB | !2!b2 c'^a b2 c'a | b2 c'^a b!4!=agf | %33
!p! z2 [GBe]2 z2 [GBe]2 | z2 [ABf]2 z2 [ABf]2 | z2 [ABf]2 z2 [ABf]2 | z2 [GBe]2 z2 [GBe]2 | %37
 z2 [^DG^B]2 [DGB]2 [DGB]2 |!p! C2 E2 G2 c2 | z2 [B^df]2 z2 [^Acf]2 | !1!B,2 !2!^A2 !3!B A,G,F, | %41
 E,"_dolce" E2 G B, B2 !4!e | [Ee]4 [^D^d]2 z2 | F, F2 A ^D !4!^d2 !4!f | [Ff]4 [Ee]2 z2 | %45
 !1![Gg]3 a gfe!4!^d | [Cc]2 EG c^de^e | [Ff]3 g fe^dc | [B,B]2 Bc ^defg | ag{/g}fe ^dc{/c}BA | %50
 Ge^de cagf | e4{/!3!g} T!1!f4{ef} |!f! eBGG AGFE | ^D2 !4!f!2!e ^defd | eBGG AGFE | %55
 ^D2 !4!f!2!e ^defd | eBEF GABA | GFED CB,A,G, | A,2 [A,Ace]2 z2 [^A,=Gce]2 | %59
 [B,GBe]2 z2 [B,e]2 [B,^d]2 | [E,Ge]2 !1!B!2!e ^defg | aBAG FGAF | [E,G]2 !1!B!2!e ^defg | %63
 aBAG FGAF | [E,G]2 !1!g!2!a !1!b!3!c'!4!d'!3!c' | !1!b!4!a!3!g!1!f edcB | cA,CE AEcA | %67
 ecag{/g} fe^dc | [B,B]2 !2!e!1!g !4!b!3!^a!2!=a!1!g |{/!3!g} Tf8{ef} | eBGB EB!4!BB | %71
!p! ^AB=AB GB^DB | EGG,G eBG,B |!p! [A,Ace]2 z2 [B,ABf]2 z2 | [G,GBe]2 z2 z2!p! B,B | %75
 Cc ^D^d !1!E!4!e !3!F!1!f | !3!G!1!g !3!!1![Bb]4 ge |!p! [Cc]2 z2 [^D^d]2 z2 | %78
 [Ee]2 z2 [^DABf]3!p! g | [EGBe]2 z2 [^DABf]3 g |!ff! [EGBe]2 [^DABf]2 [EGBe]2 [DABf]2 |1 %81
 [EGBe]2 [EGBe]2 [EGBe]2 z2 :|2 [EGBe]2 [^DABf]2 [EGBe]2 [DABf]2 || %83
[K:C]!ff! [EGBe]2 [DGBf]2 [CGce]2 [G,DGBf]2 |[K:C] C[ce]G[ce] E[ce]G[ce] | B,[Bf]G[Bf] D[Bf]G[Bf] | %86
 [G,B,DGBf]6 z2 | eGEG CGAB | dGcG C(d/c/) Bc | !3!^cG!4!dG B,2 ag | (^fg).a.g (fg).=f.d | %91
 c2 z2 z4 | A,cA[ce] A,[ce]A[ce] | ^G,[Be]^G[Be] G,[Be]G[Be] | [E,B,E^GBe]6 z2 | cAEA A,eee | %96
 f!3!AeA A,(d/c/) .B.c | cE_BE E,2 gf | (ef)gf (ed)c_B | !2!A!3!FA,F F,2 z2 | %100
 ^C!2![^ce]A[ce] [ce]4 |!p! D[df]A[df] [df]4 | B,[df]G[df] [df]4 | C[ce]G[ce] [ce]2 z2 | %104
 [FAcf]4 [EGce]4 | [DGBf]4 [CGce]4 | [FAc]4 [^FAc]4 |!p! [GB]DB,D G, ggg | ^f2 a2 z !4!_e!3!d!1!c | %109
 B2 d2 z ggg | ^f2 a2 z !4!_e!3!d!1!c | B!<(!GAB cdef!<)! |"_dolce"!mf! (^fg)ag =fedc | %113
 A2 Bc def!4!a | !1!g!3!e!1!a!2!f !2![Ge]2 !2![Gd]2 | z2 [Gce]2 z4 | (3FBf (3DBf (3B,Bf (3G,Bf | %117
 z2 [Gce]2 z4 | (3FBf (3DBf (3B,Bf (3G,Bf | z2 [Gce]2 z4 | (3DBe (3B,Be (3^G,Be (3E,Be | %121
 z2 [Ace]2 z4 | (3DBe (3B,Be (3^G,Be (3E,Be | z2 [Ace]2 z2 (3Ace | (3FAc f2 z2 (3FAc | %125
 (3EAc e2 z2 (3EGc | (3^DAc ^f2 z2 [Ac]2 | [^GB] z!p! (3GBe (3Ace (3Bde | (3cee (3cee (3Bde (3Ace | %129
 (3^GBe!pp! (3^G,Be (3A,ce (3B,de | (3Cce (3Cce (3B,de (3A,ce | (3^G,Be z2 z2 (3!1!F!3!c!2!^d | %132
!p! (3E,Be z2 z2 (3Fc^d |!p! (3E,Be z2 z2 (3Fc^d |!p! (3E,Be (3Fc^d!p! (3E,Be (3Fcd | %135
"^Cadenza ad lib" E,4 ^G,4 B,4"_sul D ........" !2!E4 !2!^G4 !2!B4 !4!e4 !fermata!z4 || %136
[K:A] z2 [Ace]2 z2 [Ace]2 | z2 [Gde]2 z2 [Gde]2 | z2 [Gde]2 z2 [Gde]2 | z2 [Ace]2 z2 [Ace]2 | %140
 z2 [Bcg]2 [Bcg]2 [Bcg]2 | z2 [Acf]4 z2 | z2 [GBe]2 z2 [ABf]2 | E,2 (^D2 E).=D.C.B, | %144
!p! A, A2 c E e2 a |!p! [Aa]4 [Gg]2 z2 | B, B2 d G g2 b | [Bb]4 [Aa]2 z2 | %148
 !1!!4![cc']3 !4!d' !3!c'!1!b!4!a!3!g | [Ff]2 !1!A!1!c !1!f!3!g!4!a!1!^a | %150
 !2![Bb]3 !4!c' !2!b!2!a!1!g!4!f |!p! !2![E,e]2 !0!e!3!f !1!g!2!a!4!b!1!c' | %152
 !4!e'!1!c'!4!b!2!a{/!3!a} !1!gf{/f}ed | caga fdcB | c4{/c} TB4{AB} |!f! Aecc dcBA | %156
 [E,G]2 !4!b!2!a gabg | Aecc dcBA | [E,G]2 !4!b!2!a gabg | aeAB cded | cBA=G FEDC | %161
 z2 [Adf]2 z2 [A=cf]2 | [Ace]2 z2 A2 G2 | [A,A]2 e!2!a !1!gabc' | d'edc BcdB | c2 e!2!a !1!gabc' | %166
 d'edc BcdB | c2 !2!a!4!b !1!c'!2!d'!4!e'!2!d' | !1!c'!4!b!2!a!2!=g !1!f!0!edc | dDFA dAfd | %170
 !4!a!1!f!4!d'!3!c' !1!b!4!a!3!g!1!f | e2 ac' !4!e'!3!^d'!2!=d'!1!c' |{/!3!c'} Tb8{ab} | %173
 !1!a!0!e!2!ce !3!A!0!e!1!e!0!e |!p! !1!^de=de ceGe | !1!A!2!cCA cACA |!p! [DAdf]2 z2 [EGde]2 z2 | %177
 [Ace]2 z2 z2 Ee | Ff Gg Aa Bb | cc' [ee']4 c'a |!p! [Ff]2 z2 [Gg]2 z2 | [Aa]2 z2 [Gdeb]3 c' | %182
!p! [cea]2 z2 [Gdeb]3 c' |!f! [cea]2 [deb]2 [cea]2 [deb]2 | [cea]2 [GBe]2 [Ace]2 [GBe]2 | %185
 [Ace]2 z2 [EAce]7/2 [EAce]/ | [EAce]4 !fermata!z4 |][K:C][M:3/4]!p!{/^G} AA{/B} cc !4!^dd | %188
!f! [B,E^GBe]2 z2 !4!f(!3!e/!1!d/) |!p!{/d} c{/c}B{/B} A z{/A} ^G z | %190
 [Ace][Ace] [Ace][Ace] [Ace]2 | [^GBe]2 z!p! (f e/)z/4d/4{/d}c/z/4B/4 | A[Ace] [Ace][Ace] [Ace]2 | %193
!f! [CFAcf]2 z!p! !2!a{/^g} a/z/4!4!b/4!4!c'/z/4!1!^d/4 | !2![E,e][E,^GB] [E,GB][E,GB] [F,CFAc]2 | %195
 [B,E^GBe]2 z2 z2 |!f! c7/4e/4 !2!G2 !3!^F/4!0!G/4!1!A/4!0!G/4!2!=F/4!1!E/4!2!F/4!0!D/4 | %197
 C2 E/G/c/e/ (f/e/)(d/c/) | BA F,/!2!^c/!3!d/e/ (!4!g/!1!f/)e/d/ | cB G,z/G/ A/B/c/d/ | %200
 z/ [Ec]/[Fd]/[^F^d]/ [Ge]/[Fd]/[=F=d]/[Ec]/ [DB]2 | %201
 z/ [Ec]/[Fd]/[^F^d]/ [Ge]/[Fd]/[=F=d]/[Ec]/ [DB]2 | z/ !4!g/a/b/ c'/b/a/g/ a/g/f/e/ | %203
 d/A/B/^c/ d/e/f/g/ !1!^g/!2!a/!3!b/!4!c'/ | !3!g/!4!c'/!1!a/!2!f/{/f} e z{/e} d z | %205
 [_Ac][Ac] [Ac][Ac] [Ac][Ac] | %206
 !3!!2![G,G_d][G,Gd] [G,Gd]/ !1!g/!4!_b/!2!_a/ !1!g/!4!f/!2!_e/!2!d/ | %207
 !1!!2![_Ac] z [Gc] z"_cresc." [^Fc] z | [G,CEGce]2 z2 [G,GB][G,GB] | %209
 [CEGc] !2!g3/2 (^f/g/)a/ g/e/d/c/ | [DB] z!f! [G,FGB]4 | %211
 [CEGc] !2!e3/2!p! (!1!^d/!2!e/)!3!f/ e/c/B/A/ | ^G z!f! [E,EGB]4 | %213
 [A,EAc] !2!a3/2 (!1!^g/!1!a/)!3!b/ !4!c'/!1!g/!2!a/e/ | ^d z [F,FAc]4 | %215
!p! [E,E^GB] !4!e3/2!p! e/^d/=d/ ^c/=c/B/A/ | %216
 [E,^G] z z/"_cresc." !0!e/!1!^f/!3!^g/ !4!a/!1!b/!3!^c'/!3!^d'/ | %217
 !4!e' z!f! (5:4:5e/B/^G/E/E,/ z2 |!p!{/^G} AA{/B} cc !2!^cc | d>^d [cda]2 z f | %220
 e/a/f/d/{/d} c z{/c} B z | [FAc][FAc] [FAc][FAc] [FAc][FAc] | [EGc][EGc] E,/e/g/f/ e/d/c/_B/ | %223
 [FA] z"_cresc." [EA] z [^DA] z |!p! A2 z2 [E^G][EG] |!p! A/B/c/d/ e/^f/^g/a/ [^Gd]2 | %226
!p! A/B/c/d/ (6:4:6.e/.f/.^f/.g/.^g/.a/ [^Gd]2 |{/^G} AA"_morendo"{/B} cc{/^d} ee | %228
{[E,^g]ab} [A,a]2 z2 z2 |][K:A][M:6/8]"_dolce" EE | (cB)A (AG)A | ^A2 B z EE | (ef)e (dc)B | %233
{/B} c2 A z EE | (cB).A (AG)A | B2 F z BA | GcB AGF | EB,G, E,2 z |!f! [A,Ace]2 z [A,Ace]2 z | %239
 z [G,GBe][G,GBe] [G,GBe]2 z | [G,GBe]2 z [G,GBe]2 z | z [A,Ace][A,Ace] [A,Ace]2 z | %242
 [CAce]2 z [CAce]2 z | [DBdf]3 z2 z | [EAce]2 z [G,GBe]2 z |!f! A,!2!a!4!b !1!c'd'e' | %246
 E,!1!e!3!f gab | A,!1!g!2!a !1!f(!2!dB) | ecA (dB)G |!f! [Ace]6 | [GBe]6 | [A,Ace]2 z [DBdf]2 z | %252
 [EAce]2 z [E,GBe]2 z |!f! A,!2!a!1!c' E,!0!e!1!g | A,ac' E,eg | %255
!ff! A,!2!!1![ca][A,ca] [A,ca][A,ca][A,ca] | [A,ca]3 z :| z2 | z!p! [ce][ce] [ce]2 z | %259
 z [Be][Be] [Be]2 z | z [A^d][Ad] [Ad]2 z | z [GB][GB] [GB]2 z | [ce]3 [Be]2 z | [ce]3 [Be]2 z | %264
 [A,ce]2 z [^A,cf]2 z | [B,B]2 z z !4!bb | !2!a!4!f!1!^d !4!A!1!F!3!^D | %267
 !4!E!3!G!1!B !2!e!1!g!4!b | af^d AF^D | EGB egb | Ace ^Afe | ^dcB !1!c'!4!b!2!a | gc'b agf | %273
!mf! [E,e]2 z [EGBe][EGBe][EGBe] | [^DABf]2 z [DABf][DABf][DABf] | [EGBe]2 z [EGBe][EGBe][EGBe] | %276
 [^DABf]2 z [DABf][DABf][DABf] | [EGBe]2 z z3 | [E=GBe]2 z z3 |!f! [D=GB=f]6 | z6 | %281
"_dolce" [=C=ce]E=G [Cce]EG | [B,B=f]D=G [B,Bf]DG | [=C=ce]E=G [Cce]EG | [B,B=f]D=G [B,Bf]DG | %285
 [=C=ce]E=G [ce]2 z | [^A,ce]E=G [ce]2 z | [Be]2 z z3 |!f! B,Be B,B^d | (e/g/f/e/^d/c/) BBB | %290
 (f/a/f/e/^d/c/) BBB | (e/g/f/e/^d/c/) BBB | (f/a/f/e/^d/c/) BBB | (egf) eee | (e=gf) eee | %295
!f! =f(fe) d(d=c) | B{/=c}BA =GAB | [=C=c]3 z =gg |"_dolce" [G=g]2 z z ab |{/b} =c'2 =g z gg | %300
 [=G=g]2 z z =fd | [=Ce]2 =c z ee | [E,e]3 z !1!f!3!g | !1![A,a]2 !4!=c' z c'c' | %304
!f! (=c'b).a (c'b).a |!p! !1!g2 e z ee | (!>!=cB).A (!>!cB).A |!p! G2 e!f! (!>!=cB)A | %308
!p! G2 e!f! (!>!=cB)A |!f! [E,B,EGBe]2 z !fermata!z!p! e!1!f | !3!gg!1!a a!3!b!4!=c' | %311
 !4!d'd'!2!=c' !1!bb!4!a | !3!g!1!=f!0!e d=cB | [A,A]G=F EE,^F, |"^rit." G,A,B, =CD^D | %315
 z3 !fermata!z ||"^a tempo""_dolce" EE | (cB)A (AG)A | ^A2 B z EE | (ef)e (dc)B |{/B} c2 A z EE | %321
 (cB)A (AG)A | B2 F z BA | GcB AGF | EB,G, E,2 z |!f! [A,Ace]2 z [A,Ace]2 z | %326
 z [G,GBe][G,GBe] [G,GBe]2 z | [G,GBe]2 z [G,GBe]2 z | z [A,Ace][A,Ace] [A,Ace]2 z | %329
 [CAce]2 z [CAce]2 z | [DBdf]3 z3 | [EAce]2 z [G,GBe]2 z |!f! A,!2!a!4!b c'd'e' | %333
 E,!1!e!3!f !1!g!2!a!4!b | A,!1!g!2!a !1!f(!2!dB) | ecA (dB)G |!f! [A,Ace]6 | [G,GBe]6 | %338
 [A,Ace]2 z [DBdf]2 z | [EAce]2 z [E,GBe]2 z |!f! A,!2!a!1!c' E,!0!e!1!g | A,!2!a!1!c' E,!0!e!1!g | %342
!ff! A,!2!!1![ca][A,ca] [A,ca][A,ca][A,ca] | [A,ca]3 z |] %344
V:4
 [A,EAc]2 x2 E,4 | A,2 x6 | E2 x2 ^D4 | E2 x6 | E,4 x4 | A,4 x4 | B,8 | E,6 x2 | x8 | x8 | %10
 E2 x2 !1!^D4 | x8 | x8 | x8 | x8 | A,4 A,2 A,2 | E,4 E,2 E,2 | A,4 A,2 A,2 | D4 E,4 | x8 | x8 | %21
 x8 | x8 | A,2 x6 | x8 | x8 | x8 | !2!B,2 B2 ^A2 =A2 | G2 ^D2 E2 C2 | !2!B,4 x4 | x8 | %31
 bBc'^a bBc'a | bBc'^a x4 | E,4 E4 | !2!F,4 ^D4 | B,4 ^D4 | E,4 E4 | !3!^B,8 | x8 | !2!F4 F,4 | %40
 x8 | x8 | x8 | x8 | x8 | x8 | x8 | x8 | x8 | x8 | E,4 A,4 | B,4 x4 | E,4 x4 | x8 | x8 | x8 | %56
 E,2 x6 | x8 | x8 | x8 | x8 | x8 | x8 | x8 | x8 | x8 | x8 | x8 | x8 | x8 | E,4 E2 B2 | %71
 ^A2 =A2 G2 ^D2 | E2 G,2 e2 x2 | x8 | x6 B,2 | x8 | x8 | x8 | x8 | x8 | x8 |1 x8 :|2 x8 || %83
[K:C] x8 |[K:C] C2 G2 E2 G2 | B,2 G2 D2 G2 | x8 | C2 E2 C2 x2 | C2 E2 C x3 | B,2 D2 B,2 z2 | G8 | %91
 C2 x6 | A,2 A2 A,2 A2 | ^G,2 ^G2 G,2 G2 | x8 | A,2 E2 A,2 z2 | A,2 E2 A,2 x2 | E,2 C2 E,2 z2 | %98
 E,8 | F,2 A,2 F,2 x2 | !4!^C2 A2 C4 | D2 A2 D4 | B,2 G2 B,4 | C2 G2 C2 x2 | x8 | x8 | x8 | x8 | %108
 G4 x4 | G,4 x4 | G4 x4 | G,2 x6 | x8 | x8 | x8 | C4 x4 | F2 D2 B,2 G,2 | C4 x4 | F2 D2 B,2 G,2 | %119
 C4 x4 | D2 B,2 ^G,2 E,2 | A,4 x4 | D2 B,2 ^G,2 E,2 | A,4 x2 A2 | F2 x4 F2 | E2 x4 E2 | ^D2 x4 D2 | %127
 E B, ^G2 A2 B2 | c2 c2 B2 A2 | ^G2 ^G,2 A,2 B,2 | C2 C2 B,2 A,2 | ^G,2 x4 F2 | E,2 x4 F2 | %133
 E,2 x4 F2 | E,2 F2 E,2 F2 | x32 ||[K:A] A,4 C4 | B,4 E4 | E,4 B,4 | A,4 E4 | ^E8 | F,4 F2 x2 | %142
 B,4 B,4 | x8 | x8 | x8 | x8 | x8 | x8 | x8 | x8 | x8 | x8 | A,4 D4 | E4 E,4 | A,8 | x8 | A,8 | %158
 x8 | A,2 x6 | x8 | D4 x2 ^D2 | E2 x2 E,2 E,2 | x8 | x8 | A,4 x4 | x8 | A,2 x6 | A,8 | x8 | x8 | %171
 A,8 | E,2 x6 | A,4 A2 e2 | ^d2 =d2 c2 G2 | A2 C2 c2 C2 | x8 | A,2 x4 E2 | x8 | x8 | x8 | x8 | %182
 A2 x6 | A2 G2 A2 G2 | A2 E,2 A,2 G,2 | A,2 x2 A,7/2 A,/ | A,4 x4 |][K:C][M:3/4] A,2 A,2 !2!F2 | %188
 E,2 x2 D2 | CD E x E, x | A,C A,C A,2 | E,2 x4 | A,C A,C A,2 | F,2 z2 x2 | x6 | E,2 x4 | C4 x2 | %197
 x6 | F,2 F,2 x2 | G,2 G,2 x2 | x6 | x6 | x6 | x6 | x6 | !4!_A,2 A,2 A,2 | x6 | x6 | x6 | x6 | x6 | %211
 x6 | x6 | x6 | x6 | x6 | x6 | x6 | A,2 A,2 !3!!1![G,A]2 | [^F,A]2 F2 z2 | A,D E x E, x | %221
 F,2 F,2 F,2 | E,2 E,4 | x6 | E,2 x2 E,2 | A,4 A,2 | A,4 A,2 | A,2 A,2 A,2 | x6 |][K:A][M:6/8] x2 | %230
 A,2 x4 | E,3 x3 | E,6 | A,3 x3 | A,3 x3 | B,3 x3 | x6 | x6 | x6 | x6 | x6 | x6 | x6 | x6 | x6 | %245
 A,6 | E,6 | A,3 D3 | E3 E,3 | A,6 | G,6 | x6 | x6 | x6 | x6 | x6 | x4 :| x2 | x AA A2 x | %259
 x GG G2 x | x FF F2 x | x EE E2 x | A3 G2 x | A3 G2 x | x6 | x6 | x6 | x6 | x6 | x6 | A3 ^A3 | %271
 B,2 x4 | x6 | x6 | x6 | x6 | x6 | x6 | x6 | x6 | x6 | =C3 C3 | B,3 B,3 | =C3 C3 | B,3 B,3 | %285
 =C3 C2 x | ^A,3 A,2 x | B,2 x4 | B,3 B,3 | x6 | x6 | x6 | x6 | x6 | x6 | D6 | x6 | x6 | x6 | x6 | %300
 x6 | x6 | x6 | x6 | x6 | E,3 x3 | x6 | E,3 E,3 | E,3 E,3 | x6 | x6 | x6 | x6 | x6 | x6 | x4 || %316
 x2 | A,2 x4 | E,3 x3 | E,6 | A,3 x3 | A,3 x3 | B,3 x3 | x6 | x6 | x6 | x6 | x6 | x6 | x6 | x6 | %331
 x6 | A,6 | E,6 | A,3 D3 | E3 E,3 | x6 | x6 | x6 | x6 | x6 | x6 | x6 | x4 |] %344
V:5
 x8 | x8 | x8 | x8 | x8 | x8 | x8 | x8 | x8 | x8 | x8 | x8 | x8 | x8 | x8 | x8 | x8 | x8 | x8 | %19
 x8 | x8 | x8 | x8 | x8 | x8 | x8 | x8 | x8 | x8 | x8 | x8 | x8 | x8 | x8 | x8 | x8 | x8 | x8 | %38
 x8 | x8 | x8 | x8 | x8 | x8 | x8 | x8 | x8 | x8 | x8 | x8 | x8 | x8 | x8 | x8 | x8 | x8 | x8 | %57
 x8 | x8 | x8 | x8 | x8 | x8 | x8 | x8 | x8 | x8 | x8 | x8 | x8 | x8 | x8 | x8 | x8 | x8 | x8 | %76
 x8 | x8 | x8 | x8 | x8 |1 x8 :|2 x8 ||[K:C] x8 |[K:C] x8 | x8 | x8 | x8 | x8 | x8 | x8 | x8 | x8 | %93
 x8 | x8 | x8 | x8 | x8 | x8 | x8 | x8 | x8 | x8 | x8 | x8 | x8 | x8 | x8 | x8 | x8 | x8 | x8 | %112
 x8 | x8 | x8 | x8 | x8 | x8 | x8 | x8 | x8 | x8 | x8 | x8 | x8 | x8 | x8 | x8 | x8 | x8 | x8 | %131
 x8 | x8 | x8 | x8 | x32 ||[K:A] x8 | x8 | x8 | x8 | x8 | x8 | x8 | x8 | x8 | x8 | x8 | x8 | x8 | %149
 x8 | x8 | x8 | x8 | x8 | x8 | x8 | x8 | x8 | x8 | x8 | x8 | x8 | x8 | x8 | E,4 x4 | x8 | E,4 x4 | %167
 x8 | x8 | x8 | x8 | x8 | x8 | x8 | x8 | x8 | x8 | x8 | x8 | x8 | x8 | x8 | x8 | x8 | x8 | x8 | %186
 x8 |][K:C][M:3/4] x6 | x6 | x6 | x6 | x6 | x6 | x6 | x6 | x6 | x6 | x6 | x6 | x6 | x6 | x6 | x6 | %203
 x6 | x6 | x6 | x6 | x6 | x6 | x6 | x6 | x6 | x6 | x6 | x6 | x6 | x6 | x6 | x6 | x6 | x6 | x6 | %222
 x6 | x6 | x6 | x6 | x6 | x6 | x6 |][K:A][M:6/8] x2 | x6 | x6 | x6 | x6 | x6 | x6 | x6 | x6 | x6 | %239
 x6 | x6 | x6 | x6 | x6 | x6 | x6 | x6 | x6 | x6 | x6 | x6 | x6 | x6 | x6 | x6 | x6 | x4 :| x2 | %258
 x6 | x6 | x6 | x6 | x6 | x6 | x6 | x6 | x6 | x6 | x6 | x6 | x6 | x6 | x6 | x6 | x6 | x6 | x6 | %277
 x6 | x6 | x6 | x6 | x6 | x6 | x6 | x6 | x6 | x6 | x6 | x6 | x6 | x6 | x6 | x6 | x6 | x6 | x6 | %296
 x6 | x6 | x6 | x6 | x6 | x6 | x6 | x6 | x6 | x6 | x6 | x6 | x6 | x6 | x6 | x6 | x6 | x6 | x6 | %315
 x4 || x2 | x6 | x6 | x6 | x6 | x6 | x6 | x6 | x6 | x6 | x6 | x6 | x6 | x6 | x6 | x6 | x6 | x6 | %334
 x6 | x6 | x6 | x6 | x6 | x6 | x6 | x6 | x6 | x4 |] %344

